svg/Pictogram/pictograms-aem-0074-pressurized_fluid-erosion_of_flesh.svg

<svg viewBox="0 0 304.01 304.01"><g transform="matrix(1.35328 0 0 1.35328-53.21-52.19)" fill-rule="evenodd"><path d="m100.25 154.67l-14.12-12.918 14.18 1.711-11.207-15.257 17.414 4.175-4.118-10.191 15.325 4.621c1.39-2.027 5.316-1.644 6.773-1.773 2.82-.246 46.789 2.027 46.789 2.027 10.512 0 11.903-14.184 11.903-14.184l-29.12-1.519c0 0 7.343-2.277 21.273-6.332 13.93-4.051 10.387-19.246 10.387-19.246 0 0-46.856 16.715-49.895 14.941l18.11-16.461c10.761-10.512.886-21.02.886-21.02l-49.01 45.08c0 0-52.55 34.949-55.714 34.949l-.129 45.34 16.465-12.285c0 0 4.558-3.926 11.14.508l11.02 5.57c0 0 3.039.762 7.468 9.496l13.297 26.469c0 0 18.227-7.02 5.192-31.28l-13.04-25.07c0 0-1.52-4.179-1.266-7.344"/><path d="m254.04 224.69l-11.766-7.692c.34-1.586.168-2.843-.617-3.421l-8.04-5.192c.016.012.028.031.043.043-1.445-.973-4.082.145-6.765 2.895l.507.496c2.387-2.446 4.821-3.59 5.911-2.782 1.277.942.601 4.711-2.434 8.817-2.074 2.801-4.68 4.863-6.484 5.137-.516.074-.93 0-1.235-.223-.914-.68-.797-2.715.297-5.195l-.648-.286c-1.246 2.821-1.289 5.04-.133 5.985-.016-.012-.031-.016-.047-.028l.059.04c.019.015.031.035.05.05.09.067.188.114.282.164l7.652 4.938c.82.609 2.164.359 3.672-.539l19.695 12.875v-16.08"/><path d="m119.97 176.18c-.063 1.703-1.782 2.649-1.879 2.699-1.086.461-2.149.309-3.074-.445-2.325-1.891-3.426-7.344-2.915-9.894 0 0 .149-.747.149-.747l.406.641c.012.016.93 1.442 3.957 3.391 2.281 1.465 3.41 2.929 3.356 4.355m-.606-.023c.043-1.18-1.023-2.5-3.078-3.821-2.01-1.293-3.117-2.359-3.672-2.984-.187 2.566.848 7.03 2.789 8.613.758.618 1.563.735 2.426.371.016-.007 1.484-.828 1.535-2.179"/><path d="m150.16 138.48l-.019.062-.039.047c-.051.059-1.239 1.414-3.098 1.332-1.578-.07-3.117-1.136-4.582-3.172-1.883-2.625-2.578-3-2.691-3.054-.024-.008-.051-.012-.075-.02l.09-.59c.031 0 .074.016.113.024l.004-.008c1.172.418 2.766.496 4.309.574 2.48.121 4.824.238 5.813 1.641.535.762.593 1.797.175 3.164m-.675-2.813c-.817-1.16-3.118-1.273-5.344-1.386-1.067-.051-2.153-.114-3.133-.282.523.559 1.168 1.36 1.91 2.395 1.348 1.875 2.727 2.855 4.106 2.918 1.386.066 2.363-.852 2.57-1.07.336-1.141.305-1.985-.109-2.575"/><path d="m170.11 143.17c.535.762.594 1.797.176 3.164l-.016.059-.042.051c-.051.058-1.235 1.41-3.098 1.328-1.574-.066-3.117-1.137-4.578-3.172-1.883-2.621-2.578-3-2.696-3.051-.019-.008-.046-.011-.07-.019l.086-.59c.031-.004.078.016.113.023v-.007c1.172.414 2.77.496 4.313.57 2.48.125 4.824.238 5.808 1.644h.004m-.5.352c-.812-1.16-3.117-1.274-5.343-1.387-1.067-.051-2.149-.117-3.133-.281.523.559 1.168 1.359 1.91 2.394 1.348 1.876 2.726 2.856 4.105 2.918 1.387.067 2.364-.851 2.571-1.07.336-1.14.304-1.984-.11-2.574"/><path d="m179.23 136.33c.535.762.593 1.797.175 3.161l-.015.062-.043.047c-.051.059-1.235 1.41-3.098 1.332-1.574-.07-3.113-1.137-4.578-3.172-1.883-2.621-2.578-3-2.691-3.055-.024-.007-.051-.011-.075-.019l.086-.59c.035 0 .078.016.117.024v-.008c1.172.418 2.766.496 4.309.574 2.48.121 4.824.238 5.813 1.641v.003m-.5.348c-.817-1.16-3.118-1.273-5.344-1.383-1.067-.054-2.149-.117-3.133-.285.527.563 1.168 1.363 1.91 2.395 1.348 1.875 2.727 2.855 4.106 2.922 1.39.062 2.363-.856 2.57-1.071.34-1.14.305-1.988-.109-2.574"/><path d="m195.49 143.42l-.015.063-.043.047c-.051.058-1.235 1.414-3.098 1.332-1.574-.071-3.117-1.137-4.578-3.172-1.887-2.625-2.578-3.01-2.695-3.055-.024-.008-.047-.011-.071-.019l.086-.59c.035-.004.078.015.114.023l.003-.008c1.172.418 2.766.497 4.309.575 2.481.121 4.824.238 5.813 1.64.535.762.593 1.797.175 3.164m-.675-2.808c-.817-1.164-3.118-1.278-5.344-1.391-1.067-.051-2.149-.113-3.133-.281.527.558 1.168 1.363 1.91 2.394 1.348 1.875 2.731 2.86 4.106 2.922 1.39.063 2.363-.855 2.57-1.07.34-1.145.305-1.988-.109-2.574"/><path d="m120.31 127.55l43.714 36.31.387-.469-43.711-36.31-.387.464"/><path d="m120.89 165.28l-18.489-8.864-.265.551 18.492 8.86.262-.547"/><path d="m172.39 181.96l-70.969-44.01-.32.515 70.964 44.02.321-.516"/><path d="m101.24 147.33l39.02 21.508.293-.531-39.01-21.508-.293.531"/><path d="m170.5 168.45l-.387.468 52.1 43.28-77.961-55.891-.355.496 77.5 55.56-43.886-27.22-.321.516 41.543 25.765-70.5-38.867-.293.531 71.54 39.442-93.84-44.969-.262.547 103.45 49.578.324-.508-58.66-48.726"/><path d="m139.91 153.19l-29.73-21.317-.356.497 29.731 21.312.355-.496"/></g></svg>

<?xml version="1.0" encoding="ISO-8859-1" standalone="yes"?>
<svg height="304.014" width="304.015">
  <metadata>
    <rdf:RDF xmlns:cc="http://web.resource.org/cc/" xmlns:dc="http://purl.org/dc/elements/1.1/" xmlns:rdf="http://www.w3.org/1999/02/22-rdf-syntax-ns#">
      <cc:Work rdf:about="">
        <dc:title></dc:title>
        <dc:description></dc:description>
        <dc:subject>
          <rdf:Bag>
            <rdf:li></rdf:li>
          </rdf:Bag>
        </dc:subject>
        <dc:publisher>
          <cc:Agent rdf:about="http://www.unece.org/trans/danger/publi/ghs/pictograms.html">
            <dc:title>Source: UNECE GHS of Classification and Labeling of Chemicals, Source: AEM Pictorial Database, Source: AEM Pictorial Database, Source: AEM Pictorial Database, Source: AEM Pictorial Database</dc:title>
          </cc:Agent>
        </dc:publisher>
        <dc:creator>
          <cc:Agent>
            <dc:title></dc:title>
          </cc:Agent>
        </dc:creator>
        <dc:rights>
          <cc:Agent>
            <dc:title></dc:title>
          </cc:Agent>
        </dc:rights>
        <dc:date></dc:date>
        <dc:format>image/svg+xml</dc:format>
        <dc:type rdf:resource="http://purl.org/dc/dcmitype/StillImage"/>
        <cc:license rdf:resource="http://en.wikipedia.org/wiki/Public_domain"/>
        <dc:language>en</dc:language>
      </cc:Work>
    </rdf:RDF>
  </metadata>
  <defs><marker id="ArrowEnd" markerHeight="3" markerUnits="strokeWidth" markerWidth="4" orient="auto" refX="0" refY="5" viewBox="0 0 10 10"><path d="M 0 0 L 10 5 L 0 10 z"/></marker><marker id="ArrowStart" markerHeight="3" markerUnits="strokeWidth" markerWidth="4" orient="auto" refX="10" refY="5" viewBox="0 0 10 10"><path d="M 10 0 L 0 5 L 10 10 z"/></marker> </defs>
  <g id="g2958" transform="matrix(1.3532768,0,0,1.3532781,-53.207834,-52.192858)">
    <path d="M 100.245 154.666L 86.1284 141.748L 100.308 143.459L 89.1014 128.202L 106.515 132.377L 102.397 122.186L 117.722 126.807C 119.112 124.78 123.038 125.163 124.495 125.034C 127.315 124.788 171.284 127.061 171.284 127.061C 181.796 127.061 183.187 112.877 183.187 112.877L 154.062 111.358C 154.062 111.358 161.405 109.081 175.335 105.026C 189.265 100.975 185.722 85.7804 185.722 85.7804C 185.722 85.7804 138.866 102.495 135.827 100.721L 153.937 84.2604C 164.698 73.7484 154.823 63.2414 154.823 63.2414L 105.815 108.319C 105.815 108.319 53.2654 143.268 50.1014 143.268L 49.9724 188.604L 66.4374 176.319C 66.4374 176.319 70.9954 172.393 77.5774 176.827L 88.5974 182.397C 88.5974 182.397 91.6364 183.159 96.0654 191.893L 109.362 218.362C 109.362 218.362 127.589 211.346 114.554 187.084L 101.511 162.01C 101.511 162.01 99.9914 157.831 100.245 154.666" style="stroke:none; fill-rule:evenodd; fill:#000000"/>
    <path d="M 254.038 224.694L 242.272 217.002C 242.612 215.416 242.44 214.159 241.655 213.581L 233.616 208.389C 233.632 208.401 233.644 208.42 233.659 208.432C 232.214 207.459 229.577 208.577 226.894 211.327L 227.401 211.823C 229.788 209.377 232.222 208.233 233.312 209.041C 234.589 209.983 233.913 213.752 230.878 217.858C 228.804 220.659 226.198 222.721 224.394 222.995C 223.878 223.069 223.464 222.995 223.159 222.772C 222.245 222.092 222.362 220.057 223.456 217.577L 222.808 217.291C 221.562 220.112 221.519 222.331 222.675 223.276C 222.659 223.264 222.644 223.26 222.628 223.248L 222.687 223.288C 222.706 223.303 222.718 223.323 222.737 223.338C 222.827 223.405 222.925 223.452 223.019 223.502L 230.671 228.44C 231.491 229.049 232.835 228.799 234.343 227.901L 254.038 240.776L 254.038 224.694" style="stroke:none; fill-rule:evenodd; fill:#000000"/>
    <path d="M 119.972 176.178C 119.909 177.881 118.19 178.827 118.093 178.877C 117.007 179.338 115.944 179.186 115.019 178.432C 112.694 176.541 111.593 171.088 112.104 168.538C 112.104 168.538 112.253 167.791 112.253 167.791L 112.659 168.432C 112.671 168.448 113.589 169.874 116.616 171.823C 118.897 173.288 120.026 174.752 119.972 176.178zM 119.366 176.155C 119.409 174.975 118.343 173.655 116.288 172.334C 114.276 171.041 113.171 169.975 112.616 169.35C 112.429 171.916 113.464 176.381 115.405 177.963C 116.163 178.581 116.968 178.698 117.831 178.334C 117.847 178.327 119.315 177.506 119.366 176.155" style="stroke:none; fill-rule:evenodd; fill:#000000"/>
    <path d="M 150.155 138.483L 150.136 138.545L 150.097 138.592C 150.046 138.651 148.858 140.006 146.999 139.924C 145.421 139.854 143.882 138.788 142.417 136.752C 140.534 134.127 139.839 133.748 139.726 133.698C 139.702 133.69 139.675 133.686 139.651 133.678L 139.741 133.088C 139.772 133.088 139.815 133.104 139.854 133.112L 139.858 133.104C 141.03 133.522 142.624 133.6 144.167 133.678C 146.647 133.799 148.991 133.916 149.98 135.319C 150.515 136.081 150.573 137.116 150.155 138.483zM 149.48 135.67C 148.663 134.51 146.362 134.397 144.136 134.284C 143.069 134.233 141.983 134.17 141.003 134.002C 141.526 134.561 142.171 135.362 142.913 136.397C 144.261 138.272 145.64 139.252 147.019 139.315C 148.405 139.381 149.382 138.463 149.589 138.245C 149.925 137.104 149.894 136.26 149.48 135.67" style="stroke:none; fill-rule:evenodd; fill:#000000"/>
    <path d="M 170.112 143.17C 170.647 143.932 170.706 144.967 170.288 146.334L 170.272 146.393L 170.23 146.444C 170.179 146.502 168.995 147.854 167.132 147.772C 165.558 147.706 164.015 146.635 162.554 144.6C 160.671 141.979 159.976 141.596 159.858 141.549C 159.839 141.541 159.812 141.538 159.788 141.53L 159.874 140.94C 159.905 140.936 159.952 140.956 159.987 140.963L 159.987 140.956C 161.159 141.37 162.757 141.452 164.3 141.526C 166.78 141.651 169.124 141.764 170.108 143.17L 170.112 143.17zM 169.612 143.522C 168.8 142.362 166.495 142.248 164.269 142.135C 163.202 142.084 162.12 142.018 161.136 141.854C 161.659 142.413 162.304 143.213 163.046 144.248C 164.394 146.124 165.772 147.104 167.151 147.166C 168.538 147.233 169.515 146.315 169.722 146.096C 170.058 144.956 170.026 144.112 169.612 143.522" style="stroke:none; fill-rule:evenodd; fill:#000000"/>
    <path d="M 179.23 136.334C 179.765 137.096 179.823 138.131 179.405 139.495L 179.39 139.557L 179.347 139.604C 179.296 139.663 178.112 141.014 176.249 140.936C 174.675 140.866 173.136 139.799 171.671 137.764C 169.788 135.143 169.093 134.76 168.98 134.709C 168.956 134.702 168.929 134.698 168.905 134.69L 168.991 134.1C 169.026 134.1 169.069 134.116 169.108 134.124L 169.108 134.116C 170.28 134.534 171.874 134.612 173.417 134.69C 175.897 134.811 178.241 134.928 179.23 136.331L 179.23 136.334zM 178.73 136.682C 177.913 135.522 175.612 135.409 173.386 135.299C 172.319 135.245 171.237 135.182 170.253 135.014C 170.78 135.577 171.421 136.377 172.163 137.409C 173.511 139.284 174.89 140.264 176.269 140.331C 177.659 140.393 178.632 139.475 178.839 139.26C 179.179 138.12 179.144 137.272 178.73 136.686" style="stroke:none; fill-rule:evenodd; fill:#000000"/>
    <path d="M 195.487 143.42L 195.472 143.483L 195.429 143.53C 195.378 143.588 194.194 144.944 192.331 144.862C 190.757 144.791 189.214 143.725 187.753 141.69C 185.866 139.065 185.175 138.682 185.058 138.635C 185.034 138.627 185.011 138.624 184.987 138.616L 185.073 138.026C 185.108 138.022 185.151 138.041 185.187 138.049L 185.19 138.041C 186.362 138.459 187.956 138.538 189.499 138.616C 191.98 138.737 194.323 138.854 195.312 140.256C 195.847 141.018 195.905 142.053 195.487 143.42zM 194.812 140.612C 193.995 139.448 191.694 139.334 189.468 139.221C 188.401 139.17 187.319 139.108 186.335 138.94C 186.862 139.498 187.503 140.303 188.245 141.334C 189.593 143.209 190.976 144.194 192.351 144.256C 193.741 144.319 194.714 143.401 194.921 143.186C 195.261 142.041 195.226 141.198 194.812 140.612" style="stroke:none; fill-rule:evenodd; fill:#000000"/>
    <path d="M 120.312 127.549L 164.026 163.862L 164.413 163.393L 120.702 127.081L 120.315 127.545" style="stroke:none; fill-rule:evenodd; fill:#000000"/>
    <path d="M 120.894 165.28L 102.405 156.416L 102.14 156.967L 120.632 165.827L 120.894 165.28" style="stroke:none; fill-rule:evenodd; fill:#000000"/>
    <path d="M 172.39 181.963L 101.421 137.948L 101.101 138.463L 172.065 182.479L 172.386 181.963" style="stroke:none; fill-rule:evenodd; fill:#000000"/>
    <path d="M 101.237 147.334L 140.253 168.842L 140.546 168.311L 101.534 146.803L 101.241 147.334" style="stroke:none; fill-rule:evenodd; fill:#000000"/>
    <path d="M 170.499 168.448L 170.112 168.916L 222.21 212.194L 144.249 156.303L 143.894 156.799L 221.397 212.358L 177.511 185.139L 177.19 185.655L 218.733 211.42L 148.233 172.553L 147.94 173.084L 219.48 212.526L 125.644 167.557L 125.382 168.104L 228.835 217.682L 229.159 217.174L 170.499 168.448" style="stroke:none; fill-rule:evenodd; fill:#000000"/>
    <path d="M 139.905 153.194L 110.175 131.877L 109.819 132.374L 139.55 153.686L 139.905 153.19" style="stroke:none; fill-rule:evenodd; fill:#000000"/>
    <path d="M 29.6204 265.393L 2.62042 265.393" style="stroke:#000000; stroke-width:0.5; fill:none"/>
    <path d="M 38.6204 274.393L 38.6204 301.393" style="stroke:#000000; stroke-width:0.5; fill:none"/>
    <path d="M 29.6204 38.6204L 2.62042 38.6204" style="stroke:#000000; stroke-width:0.5; fill:none"/>
    <path d="M 38.6204 29.6204L 38.6204 2.62042" style="stroke:#000000; stroke-width:0.5; fill:none"/>
    <path d="M 274.394 38.6204L 301.394 38.6204" style="stroke:#000000; stroke-width:0.5; fill:none"/>
    <path d="M 265.394 29.6204L 265.394 2.62042" style="stroke:#000000; stroke-width:0.5; fill:none"/>
    <path d="M 274.394 265.393L 301.394 265.393" style="stroke:#000000; stroke-width:0.5; fill:none"/>
    <path d="M 265.394 274.393L 265.394 301.393" style="stroke:#000000; stroke-width:0.5; fill:none"/>
  </g>
</svg>
